src/main/resources/icons/PycharmDSJupyterIcons/icons/org/jetbrains/plugins/notebooks/jupyter/ui/runningPythonNotebook.svg

<svg width="16" height="16" viewBox="0 0 16 16" fill="none" xmlns="http://www.w3.org/2000/svg">
<path fill-rule="evenodd" clip-rule="evenodd" d="M13 16H1V9H13V9.03544C11.3039 9.27806 10 10.7368 10 12.5C10 14.2632 11.3039 15.7219 13 15.9646V16Z" fill="#40B6E0" fill-opacity="0.7"/>
<path fill-rule="evenodd" clip-rule="evenodd" d="M7 1L3 5H7V1Z" fill="#9AA7B0" fill-opacity="0.8"/>
<path fill-rule="evenodd" clip-rule="evenodd" d="M8 1V6H3V8H13V1H8Z" fill="#9AA7B0" fill-opacity="0.8"/>
<path fill-rule="evenodd" clip-rule="evenodd" d="M3 15H4V10H3V15Z" fill="#231F20" fill-opacity="0.7"/>
<path fill-rule="evenodd" clip-rule="evenodd" d="M6.9 12.5C7.564 12.5 8 12.3844 8 11.75C8 11.1156 7.557 11 6.9 11H6V12.5H6.9ZM5 10H6.971C8.142 10 9 10.642 9 11.65C9 13.2858 7.971 13.5 6.872 13.5H6V15H5V10Z" fill="#231F20" fill-opacity="0.7"/>
<circle cx="13.5" cy="12.5" r="2.5" fill="#62B543"/>
</svg>

<svg width="16" height="16" viewBox="0 0 16 16" fill="none" xmlns="http://www.w3.org/2000/svg"><rect id="frame" width="16" height="16" fill="none"/><path fill-rule="evenodd" clip-rule="evenodd" d="M13 16H1V9h12v.035a3.5 3.5 0 0 0 0 6.93V16z" fill="#40B6E0" fill-opacity=".7"/><path fill-rule="evenodd" clip-rule="evenodd" d="M7 1L3 5h4V1z" fill="#9AA7B0" fill-opacity=".8"/><path fill-rule="evenodd" clip-rule="evenodd" d="M8 1v5H3v2h10V1H8z" fill="#9AA7B0" fill-opacity=".8"/><path fill-rule="evenodd" clip-rule="evenodd" d="M3 15h1v-5H3v5z" fill="#231F20" fill-opacity=".7"/><path fill-rule="evenodd" clip-rule="evenodd" d="M6.9 12.5c.664 0 1.1-.116 1.1-.75S7.557 11 6.9 11H6v1.5h.9zM5 10h1.971C8.142 10 9 10.642 9 11.65c0 1.636-1.029 1.85-2.128 1.85H6V15H5v-5z" fill="#231F20" fill-opacity=".7"/><circle cx="13.5" cy="12.5" r="2.5" fill="#62B543"/></svg>
